X:69
T:Dutchess Of Montrose’s Reel. WM.069
T:Duchess of Montrose’s Reel. WM.069
M:2/4
L:1/8
Q:1/2=100
S:Wm.Mittell’s MS, New Romney,Kent,1799
R:.Reel
O:England
A:Kent
W:First couple set to the second lady &
W:hands around the (?) to the second gent.
W:Lead down the middle and (…?)
W:right and left at top
Z:vmp.Chris Partington
K:F
F2FF|AFAF|F2FF|c2A2|BBdB|AAcA |1GABG|FEDC:|2GBGE|F2F2:|!
|:f2fa|d2df|cdcA|GEDC|ffaf|ddfd|cABG|F2F2:|

